X: 26
M:4/4
L:1/8
K:C
|: e2 ef g2 fe| d2 de f2 ed| e2 e2 e2 dc d3 f c4| e2 fe fedc |d2 ed ed B2| c2 A2 A2 d2| B3 c A4:|

